Collapse/img/other/icon_vk.svg

<svg width="22" height="14" viewBox="0 0 22 14" fill="none" xmlns="http://www.w3.org/2000/svg">
<path d="M21.8834 12.0599C21.8567 12.0025 21.8319 11.9549 21.8088 11.9168C21.4271 11.2293 20.6977 10.3855 19.621 9.38513L19.5983 9.36222L19.5869 9.35098L19.5754 9.33947H19.5638C19.0751 8.87364 18.7657 8.56042 18.6361 8.40006C18.399 8.09459 18.3459 7.78539 18.4755 7.47209C18.567 7.23539 18.9109 6.73549 19.5064 5.97173C19.8196 5.56696 20.0677 5.24256 20.2509 4.99815C21.572 3.2417 22.1448 2.11931 21.9691 1.63053L21.9009 1.51631C21.855 1.44755 21.7367 1.38464 21.546 1.32727C21.3548 1.27002 21.1105 1.26055 20.8127 1.2987L17.5138 1.32149C17.4604 1.30255 17.3841 1.30432 17.2847 1.32727C17.1854 1.35022 17.1357 1.36173 17.1357 1.36173L17.0783 1.39042L17.0327 1.42488C16.9945 1.44767 16.9525 1.48775 16.9067 1.54504C16.8611 1.60213 16.8229 1.66913 16.7924 1.74548C16.4333 2.66947 16.0249 3.52856 15.5666 4.32269C15.2841 4.79622 15.0246 5.20661 14.7876 5.55409C14.5509 5.90144 14.3524 6.15737 14.1921 6.32142C14.0317 6.48563 13.8868 6.61718 13.7568 6.71656C13.6269 6.81597 13.5277 6.85798 13.4591 6.84261C13.3903 6.82725 13.3255 6.812 13.2642 6.79676C13.1573 6.72799 13.0714 6.63447 13.0066 6.51612C12.9415 6.39777 12.8977 6.2488 12.8748 6.06934C12.852 5.88977 12.8385 5.73531 12.8347 5.60544C12.8311 5.47573 12.8328 5.29226 12.8405 5.05556C12.8484 4.81873 12.852 4.65849 12.852 4.57448C12.852 4.28426 12.8577 3.96927 12.869 3.62946C12.8806 3.28965 12.8899 3.0204 12.8977 2.82205C12.9055 2.6235 12.9091 2.41343 12.9091 2.19197C12.9091 1.97051 12.8957 1.79683 12.869 1.67077C12.8427 1.54488 12.8023 1.42267 12.7491 1.3042C12.6955 1.18584 12.6171 1.09429 12.5142 1.0293C12.4112 0.964383 12.283 0.91287 12.1305 0.874595C11.7258 0.783002 11.2103 0.733454 10.584 0.725751C9.16376 0.710505 8.25115 0.802219 7.84643 1.00077C7.68607 1.08466 7.54095 1.19928 7.41121 1.34428C7.27372 1.51234 7.25454 1.60405 7.3538 1.61914C7.81204 1.68778 8.13645 1.85199 8.32738 2.11161L8.39619 2.24918C8.44971 2.34844 8.50315 2.52416 8.55663 2.77611C8.61003 3.02806 8.64449 3.30678 8.65965 3.61209C8.69777 4.16963 8.69777 4.6469 8.65965 5.04392C8.62142 5.44111 8.58531 5.75031 8.55085 5.97177C8.51639 6.19323 8.46487 6.37269 8.39619 6.5101C8.32738 6.64755 8.2816 6.73156 8.25866 6.76205C8.23575 6.79254 8.21665 6.81176 8.20149 6.8193C8.10223 6.85734 7.999 6.87672 7.89216 6.87672C7.78516 6.87672 7.65542 6.8232 7.50272 6.71624C7.35006 6.60928 7.19163 6.46236 7.02742 6.27524C6.86321 6.08808 6.67802 5.82654 6.47176 5.49058C6.26567 5.15461 6.05183 4.75755 5.83037 4.29938L5.64714 3.96711C5.5326 3.75335 5.37613 3.4421 5.17758 3.03364C4.9789 2.62502 4.8033 2.22976 4.65064 1.84794C4.58962 1.68758 4.49795 1.5655 4.37578 1.48149L4.31845 1.44702C4.28034 1.41653 4.21916 1.38416 4.13523 1.34965C4.05117 1.31519 3.96347 1.29048 3.87176 1.27527L0.733229 1.29806C0.412512 1.29806 0.194902 1.37072 0.0803198 1.51583L0.0344629 1.58447C0.0115545 1.62271 0 1.68377 0 1.76782C0 1.85183 0.0229084 1.95494 0.0687653 2.07703C0.526933 3.15384 1.02518 4.19234 1.56351 5.19269C2.10184 6.19303 2.56963 6.99884 2.96662 7.60938C3.36368 8.22037 3.76841 8.79701 4.1808 9.33903C4.59319 9.88125 4.86617 10.2287 4.99973 10.3814C5.13345 10.5343 5.23848 10.6487 5.31483 10.725L5.60124 10.9999C5.78451 11.1832 6.05363 11.4027 6.40873 11.6585C6.76391 11.9144 7.15713 12.1663 7.58858 12.4147C8.0201 12.6627 8.52212 12.8651 9.09491 13.0216C9.66762 13.1782 10.225 13.2411 10.7673 13.2108H12.0846C12.3517 13.1877 12.5541 13.1037 12.6917 12.9587L12.7373 12.9013C12.7679 12.8557 12.7966 12.7849 12.8231 12.6896C12.8499 12.5942 12.8632 12.489 12.8632 12.3747C12.8554 12.0463 12.8804 11.7505 12.9375 11.487C12.9946 11.2237 13.0597 11.0251 13.1324 10.8914C13.2052 10.7578 13.2873 10.6451 13.3786 10.5537C13.4702 10.4621 13.5354 10.4066 13.5737 10.3875C13.6117 10.3683 13.6421 10.3553 13.665 10.3474C13.8483 10.2864 14.0639 10.3455 14.3124 10.5251C14.5606 10.7046 14.7934 10.9262 15.0112 11.1895C15.2288 11.4531 15.4903 11.7488 15.7957 12.0771C16.1013 12.4055 16.3685 12.6497 16.5975 12.8103L16.8265 12.9477C16.9795 13.0394 17.178 13.1234 17.4224 13.1998C17.6664 13.2761 17.8801 13.2952 18.0637 13.257L20.9959 13.2113C21.2859 13.2113 21.5116 13.1633 21.6717 13.068C21.8321 12.9726 21.9274 12.8674 21.9581 12.753C21.9888 12.6385 21.9904 12.5086 21.9639 12.3634C21.9368 12.2185 21.91 12.1172 21.8834 12.0599Z" fill="#9FA4B0"/>
</svg>

<svg width="22" height="14" fill="none" xmlns="http://www.w3.org/2000/svg"><path d="M21.883 12.06a1.505 1.505 0 00-.074-.143c-.382-.688-1.111-1.531-2.188-2.532l-.023-.023-.011-.011-.012-.012h-.011c-.489-.465-.798-.779-.928-.939-.237-.305-.29-.615-.16-.928.091-.237.435-.737 1.03-1.5.314-.405.562-.73.745-.974 1.321-1.756 1.894-2.879 1.718-3.367l-.068-.115c-.046-.068-.164-.131-.355-.189-.191-.057-.436-.066-.733-.028l-3.3.022a.428.428 0 00-.228.006l-.15.035-.057.028-.045.035a.508.508 0 00-.126.12.787.787 0 00-.115.2 18.72 18.72 0 01-1.225 2.578c-.283.473-.542.884-.78 1.231a5.923 5.923 0 01-.595.767c-.16.165-.305.296-.435.396-.13.099-.23.141-.298.126a8.342 8.342 0 01-.195-.046.761.761 0 01-.257-.28 1.256 1.256 0 01-.132-.448 4.903 4.903 0 01-.04-.464 9.701 9.701 0 01.005-.55c.008-.236.012-.397.012-.48 0-.29.006-.606.017-.946.012-.34.02-.609.029-.807.008-.199.011-.409.011-.63 0-.221-.013-.395-.04-.521a1.784 1.784 0 00-.12-.367.617.617 0 00-.235-.275 1.323 1.323 0 00-.383-.154c-.405-.092-.92-.142-1.547-.15-1.42-.014-2.333.077-2.738.276a1.55 1.55 0 00-.435.343c-.137.168-.156.26-.057.275.458.069.782.233.973.493l.07.137c.053.1.106.275.16.527.053.252.087.53.103.836a8.915 8.915 0 010 1.432c-.039.397-.075.706-.11.928-.034.221-.085.4-.154.538a2.273 2.273 0 01-.137.252.197.197 0 01-.058.057.858.858 0 01-.309.058c-.107 0-.237-.054-.39-.16a2.748 2.748 0 01-.475-.442 5.896 5.896 0 01-.555-.784c-.206-.336-.42-.733-.642-1.192l-.183-.332a28.575 28.575 0 01-.47-.933 17.998 17.998 0 01-.526-1.186.755.755 0 00-.275-.367l-.058-.034a.784.784 0 00-.183-.097 1.216 1.216 0 00-.263-.075l-3.139.023c-.32 0-.538.073-.653.218l-.046.068A.37.37 0 000 1.768c0 .084.023.187.069.309a37.802 37.802 0 001.495 3.116 34.79 34.79 0 001.403 2.416c.397.611.801 1.188 1.214 1.73.412.542.685.89.819 1.042.133.153.238.268.315.344L5.6 11a6.8 6.8 0 00.808.659c.355.255.748.507 1.18.756a6.4 6.4 0 001.506.607c.573.156 1.13.22 1.672.189h1.318c.267-.023.47-.107.607-.252l.045-.058a.762.762 0 00.086-.211 1.16 1.16 0 00.04-.315 3.778 3.778 0 01.075-.888c.057-.263.122-.462.194-.596a1.467 1.467 0 01.442-.504.762.762 0 01.091-.04c.183-.06.399-.002.647.178.249.18.481.401.7.665.217.263.478.559.784.887.305.329.573.573.802.733l.229.138c.152.091.351.175.595.252.244.076.458.095.642.057l2.932-.046c.29 0 .516-.048.676-.143.16-.095.255-.2.286-.315a.886.886 0 00.006-.39 1.439 1.439 0 00-.08-.303z" fill="#9FA4B0"/></svg>
